X:1
T:Title
%%score ( 1 2 ) { 3 | 4 }
L:1/8
Q:1/4=108
M:4/4
K:F
V:1 treble nm="Grand Piano, Soprano"
V:2 treble 
V:3 bass nm="Choir Pad, Chilton,CM"
V:4 bass 
V:1
 [CF]2 [FA]2 [EG]2 F2 | [Fd]2 [Fc]2 [EB]2 [FA]2 | [Gc]2 [Af]2 [Ad]2 [FA]2 | =B2 z2 z4 | %4
w: By~Samuel~Sebastien~Wesley,~1864 * * *||||
 [Ec]2 F2 F2 [DB]2 | z4 c2 z2 | [Fd]2 [Ec]2 [FB]2 [FA]2 | [EG]2 F6- | F2 z2 z4 |] %9
w: |||||
V:2
 x8 | x8 | x8 | FG [Ec]6 | x8 | [Fd]2 [Gc]2 F_E [DB]2 | x8 | x8 | x8 |] %9
V:3
 A,2 C2 B,2 A,2 | B,A, G,2[K:treble] C2 C2 | C2 D2 F2 FE | D2 C6 | C2[K:bass] A,2 C2 B,2 | %5
 B,2 B,2 A,2 B,2 | B,A, G,2 F,2 C2 | CB, A,6- | A,2 z2 z4 |] %9
V:4
 F,2 F,2 C,2 D,2 | B,,2 C,2 C,2 F,2 | E,2 D,2 D,E, F,2 | G,2 C,6 | A,,2 D,2 A,2 G,2 | %5
 D,2 _E,2 F,2 B,,2 | B,,2 C,2 D,2 C,2 | C,2 F,6- | F,2 z2 z4 |] %9

